build/system/ChevronRightOutline.svg

<svg xmlns="http://www.w3.org/2000/svg" fill="none" viewBox="0 0 24 24" focusable="false"><path d="M0 0H24V24H0z"/><path fill="#74767B" d="M9.47396 18.7543C9.29396 18.7543 9.12396 18.6843 8.99396 18.5443C8.75396 18.2743 8.77396 17.8643 9.03396 17.6243L15.4031 11.884L8.99394 6.33399C8.72394 6.09399 8.71394 5.68398 8.95394 5.41398C9.19394 5.15399 9.60394 5.13399 9.87394 5.37398L16.7731 11.364C17.0831 11.644 17.0831 12.124 16.7731 12.404L9.91396 18.5843C9.78396 18.7043 9.63396 18.7543 9.47396 18.7543Z"/></svg>

<svg xmlns="http://www.w3.org/2000/svg" fill="none" viewBox="0 0 24 24" focusable="false"><path fill="#74767B" d="M9.47 18.75c-.18 0-.35-.07-.48-.21a.66.66 0 0 1 .04-.92l6.37-5.74-6.41-5.55a.65.65 0 0 1-.04-.92c.24-.26.65-.28.92-.04l6.9 5.99c.31.28.31.76 0 1.04l-6.86 6.18c-.13.12-.28.17-.44.17"/></svg>
